X: 1
T: Jag vet en dejlig rosa
O: Sweden
M: 2/4
L: 1/8
K: Dm
|: E | "Dm"FA "A7" EG | "Dm"F>E DE | "Gm"FD "A7"E^C | "Dm"D2 z :|
|: A | "D"A^F GA | "Gm"B>A GG | "C"GE FG | "F"A>G "A"FE | "Dm"DF "A7"^CE | "Dm"D2 z :|
